app/assets/images/icon/icon_color.svg

<?xml version="1.0" encoding="UTF-8" standalone="no"?>
<svg width="1020px" height="1020px" viewBox="0 0 1020 1020" version="1.1" xmlns="http://www.w3.org/2000/svg" xmlns:xlink="http://www.w3.org/1999/xlink" xmlns:sketch="http://www.bohemiancoding.com/sketch/ns">
    <title>Cloudsdale Black 2</title>
    <description>Created with Sketch (http://www.bohemiancoding.com/sketch)</description>
    <defs></defs>
    <g id="Page 1" stroke="none" stroke-width="1" fill="none" fill-rule="evenodd">
        <path d="M510,1010 C786.142389,1010 1010,786.142389 1010,510 C1010,233.857611 786.142389,10 510,10 C233.857611,10 10,233.857611 10,510 C10,786.142389 233.857611,1010 510,1010 Z M510,1010" id="Background" stroke="#404C53" stroke-width="10" fill="#404B52"></path>
        <g id="Rainbow" transform="translate(459.794955, 557.757412) rotate(-344.000000) translate(-459.794955, -557.757412) translate(-86.494047, 2.092176)" stroke="#404C53" stroke-width="15">
            <g id="layer1" transform="translate(0.986972, 0.986972)">
                <path d="M143.195735,261.483196 C231.340517,272.5302 302.371861,314.72343 359.120729,380.266207 C470.4974,510.482481 540.966455,686.785086 642.765516,846.704452 C693.616437,919.775139 776.095327,927.025598 814.308903,927.744932 C744.249829,965.923887 663.913337,987.618542 578.509783,987.618542 C572.508641,987.618542 566.532519,987.511423 560.583223,987.298992 C443.560773,846.813705 399.313921,643.380722 298.339703,481.665825 C252.048718,407.528664 192.759855,353.345099 113.2994,329.085624 C121.600295,305.68924 131.616129,283.104709 143.195735,261.483196 Z M143.195735,261.483196" id="Shape" fill="#B390CC"></path>
                <path d="M173.24692,212.47048 C244.358777,220.711155 306.60192,251.345261 361.03051,299.589412 C488.55327,414.004902 581.555549,579.463403 703.476692,724.571955 C770.011947,797.454777 947.70435,781.976735 978.145999,777.945198 L974.837075,788.213443 C922.15557,859.095835 850.905795,915.360181 768.284657,949.808978 C722.006177,934.953268 679.943884,909.763308 641.733043,875.894209 C506.411691,752.11148 435.790044,555.529816 314.057801,408.05685 C262.622407,345.745237 205.912865,298.735444 133.410123,280.761221 C144.884865,256.867917 158.226842,234.041293 173.24692,212.47048 Z M173.24692,212.47048" id="path3849" fill="#6EA0D6"></path>
                <path d="M218.837522,156.248273 C265.026782,161.596017 305.818546,181.208548 354.235693,213.914053 C495.643371,310.682251 609.450478,462.514763 749.297305,590.422038 C817.995815,648.253123 999.455302,635.61815 1053.93636,626.879775 C1035.59263,692.716151 1003.94089,753.005788 962.062376,804.667438 C868.084329,821.617432 783.593141,799.617743 707.74618,748.383636 C557.38217,643.349258 461.725766,457.768303 321.75849,327.493825 C272.751646,281.880734 218.875017,248.67451 158.912534,234.260543 C176.287451,206.265932 196.385835,180.138453 218.837522,156.248273 Z M218.837522,156.248273" id="path3851" fill="#7CDD8C"></path>
                <path d="M265.854058,112.308875 C292.473951,118.89447 318.642446,128.748488 344.345881,141.569749 C497.226571,218.985174 629.992398,354.64796 785.420981,463.157237 C860.425883,511.058639 1019.61313,477.98837 1070.9908,462.37856 C1071.65734,472.877455 1071.99578,483.465474 1071.99578,494.132542 C1071.99578,544.849125 1064.34509,593.778791 1050.13486,639.830378 C953.465344,674.133798 850.3345,667.868257 765.010648,625.307491 C602.165898,540.868799 482.95193,369.344541 327.09267,258.502892 C282.426678,226.738018 237.242113,202.400278 189.479294,190.479103 C211.981799,161.690494 237.610219,135.463586 265.854058,112.308875 Z M265.854058,112.308875" id="path3853" fill="#E6FB69"></path>
                <path d="M326.122865,69.9811967 C483.711724,127.961742 630.197166,241.813501 794.757319,327.070199 C867.85515,361.205534 980.291589,325.14134 1033.37896,302.433134 C1055.38968,354.597022 1068.68926,411.335631 1071.45511,470.826366 C980.121123,519.295646 887.556189,522.029746 795.807893,490.479913 C623.373689,428.147789 484.499285,268.244176 315.522581,178.823495 C287.325416,163.901849 259.089092,152.114586 230.670314,144.08089 C259.25695,115.673787 291.30373,90.7446253 326.122865,69.9811967 Z M326.122865,69.9811967" id="path3855" fill="#F7BE6A"></path>
                <path d="M334.105586,65.3217789 C492.094939,112.777311 650.154775,186.810976 804.713254,198.724164 C858.038923,201.996199 908.831567,195.189598 956.256542,176.568582 C991.08813,217.958244 1019.24188,265.153687 1039.0578,316.494916 C965.951032,355.643832 888.108128,363.67356 807.627275,347.325349 C628.480456,308.007005 468.872336,173.370321 289.628355,106.766105 C285.774425,105.334045 281.928546,103.943121 278.09042,102.595587 C295.846691,88.9511128 314.557557,76.4873658 334.105586,65.3217789 Z M334.105586,65.3217789" id="path3857" fill="#E46666"></path>
            </g>
        </g>
        <g id="Wing" transform="translate(509.500000, 449.500000) rotate(-11.000000) translate(-509.500000, -449.500000) translate(100.000000, 140.000000)">
            <path d="M251.314435,225.644173 C344.936727,78.7830606 541.011129,-36.1792962 607.612799,26.3648118 C632.472226,49.652946 574.679214,109.669804 512.468282,140.522897 C469.031342,162.065155 431.786416,183.801227 426.411031,209.320164 C562.056334,175.793486 760.83617,98.0625205 807.51928,175.417889 C831.687218,241.61072 711.976383,247.453322 466.158511,355.450622 C605.746645,383.884059 646.696596,424.074681 650.299509,460.772029 C644.021195,505.115581 569.083044,501.538314 459.728282,492.247921 C415.247856,488.469034 371.843601,489.860687 331.718494,499.242995 C370.920966,524.09964 461.895155,640.025646 104.92401,602.390344 C2.50260229,581.039902 -15.4083797,531.928871 38.8730442,490.475172 C141.379558,410.094894 187.764223,324.400065 251.314435,225.644173 Z M251.314435,225.644173" id="Large Wing FL" fill="#FFFFFF"></path>
            <path d="M39.2006874,489.022259 C122.991489,423.642455 168.676989,358.898216 223.541113,269.962995 C253.298625,230.180524 310.509476,169.606154 342.577103,193.085597 C401.670966,243.520917 283.355548,347.809394 273.966088,362.54653 C341.264484,340.551833 371.833502,350.032046 381.621948,369.859951 C404.964435,417.143535 275.304484,506.1973 205.76838,511.341506 C264.433322,540.287725 221.269182,597.551113 157.410016,607.231604 C41.1133552,600.434812 -38.0493126,552.326628 39.2006874,489.022259 L39.2006874,489.022259 Z M39.2006874,489.022259" id="Small Wing FL" fill="#FFFFFF"></path>
            <path d="M558.191489,0.754500818 C550.983748,0.670212766 543.512782,1.26780687 535.840835,2.39116203 C505.153011,6.88461538 470.696694,20.3431751 435.54419,40.3412439 C365.250213,80.3310966 292.096203,146.408838 244.412848,221.192308 C244.404664,221.203764 244.421031,221.231751 244.412848,221.243372 C180.702259,320.251899 135.071391,404.624681 33.8972995,483.978642 C33.8779869,483.993372 33.8653846,484.014648 33.8462357,484.029705 C19.5154828,494.985025 9.39386252,506.734583 4.28404255,519.371358 C-0.832864157,532.02563 -0.407561375,545.692046 5.8695581,557.730606 C18.4237971,581.807725 50.9063666,599.499067 103.2509,610.410638 L103.660065,610.461702 L104.069231,610.512766 C193.711604,619.963715 255.476498,619.861817 297.655565,613.734943 C339.834632,607.608069 363.312635,595.563453 373.862602,578.546727 C384.41257,561.53 379.300573,542.015319 369.975532,526.838462 C364.59455,518.08072 357.793732,510.468903 350.8982,504.078642 C385.107823,498.139902 421.509247,497.209378 459.020131,500.396154 C513.766334,505.047201 560.013372,508.367774 594.504992,504.743535 C611.750802,502.931424 626.207594,499.462684 637.467349,492.724304 C648.727103,485.985925 656.497447,475.272897 658.385925,461.934615 L658.53928,460.962848 L658.436989,459.99108 C656.369345,438.931129 643.201473,417.237463 613.684534,398.155974 C587.907938,381.492455 548.487791,366.304746 492.315876,353.147791 C603.14239,305.778903 686.619607,279.331326 741.139525,257.352291 C770.272913,245.607529 791.39293,235.294714 804.713584,222.11293 C818.034239,208.931146 822.000196,191.233028 815.198445,172.603928 L814.942717,171.887889 L814.533552,171.171849 C801.222079,149.114337 776.99311,138.443322 748.248773,135.216448 C719.504435,131.989574 685.431064,135.677398 648.770458,142.734861 C581.485074,155.687856 506.007741,179.886481 441.937398,196.693535 C446.297774,191.252029 452.310098,185.660278 459.991817,180.020049 C474.664877,169.246514 494.527545,158.547447 516.098609,147.849427 C548.192602,131.932619 578.796547,108.855074 598.852291,86.0143208 C608.880164,74.5939444 616.3718,63.2906874 619.822013,52.1047463 C623.272226,40.9188052 621.87347,28.4969885 613.224223,20.3944354 C598.957005,6.99641571 579.814697,1.00733224 558.191489,0.754500818 L558.191489,0.754500818 Z M598.546857,29.55957 C602.327316,33.1010757 606.509787,39.715892 604.17144,47.297054 C601.833093,54.878216 595.615516,64.8710966 586.526187,75.2225859 C568.347545,95.925581 538.952864,118.234337 508.835925,133.170622 C486.970049,144.014861 466.477774,154.964664 450.325286,166.824468 C434.172799,178.684272 421.787234,191.60761 418.410393,207.638707 L415.699673,220.373977 L428.383797,217.254092 C496.732635,200.360704 580.239525,172.639116 651.890344,158.845745 C687.715745,151.949051 720.563257,148.573715 746.458674,151.480769 C771.990245,154.346972 789.945303,162.831686 800.059329,178.997136 C804.959984,192.929149 803.018756,200.741064 793.20581,210.451718 C783.196105,220.35707 763.502602,230.672373 735.002046,242.162029 C678.000917,265.141326 586.163028,293.808854 462.855974,347.982406 L439.277823,358.31383 L464.543781,363.479542 C533.752275,377.576989 578.029394,394.566825 604.785188,411.863339 C630.904861,428.748642 640.113339,445.134632 641.968085,460.451718 C640.582913,468.76581 636.731408,474.049624 629.028232,478.659574 C621.053977,483.431751 608.759967,486.804337 592.817103,488.479542 C560.931375,491.829967 515.009542,488.72036 460.400982,484.081015 C415.304288,480.249771 371.101669,481.653191 329.87725,491.292553 L310.851064,495.69108 L327.319967,506.175941 C335.899984,511.61617 348.460867,523.057169 356.06383,535.43126 C363.666792,547.805352 366.378462,559.587152 359.9509,569.954583 C353.523339,580.322013 335.239116,591.772144 295.302782,597.573241 C255.407676,603.368347 194.706187,603.585925 106.012684,594.248773 C56.3147791,583.794943 28.7973159,566.327005 20.3948445,550.212357 C16.1767267,542.122651 15.8834534,534.3891 19.4742226,525.509002 C23.0649918,516.628903 31.041162,506.728347 43.8195581,496.969722 C147.707496,415.53527 194.806023,328.559738 258.171031,230.091653 C304.161538,157.97743 375.836956,93.17527 443.625123,54.6109656 C477.519214,35.3288052 510.459902,22.6141408 538.193453,18.5532733 C545.126841,17.5380524 551.666088,17.0681997 557.833388,17.1211948 C576.335385,17.2800327 587.838445,19.5035471 598.546857,29.55957 Z M598.546857,29.55957" id="Large Wing OL" fill="#404C53"></path>
            <path d="M321.438216,179.968903 C318.397692,180.275794 315.315892,180.894157 312.334288,181.759002 C300.407889,185.218396 288.655254,192.37198 277.146072,201.347791 C254.127709,219.299394 232.190949,244.765057 216.998773,265.075286 L216.79419,265.331015 L216.589607,265.689034 C161.859509,354.407005 117.01545,417.891227 34.1530278,482.546645 L34.101964,482.648936 L33.9996727,482.7 C13.7641571,499.282471 2.59402619,515.681031 0.601554828,532.260147 C-1.39091653,548.839264 6.75315876,564.042046 20.446072,575.580524 C47.8319149,598.65748 97.7908511,611.965303 156.953846,615.422995 L157.772177,615.474059 L158.641571,615.320786 C192.66509,610.16311 221.296678,592.88599 234.541735,570.721768 C241.164255,559.639656 243.771113,546.720196 239.707447,534.561784 C237.445041,527.7927 233.047185,521.632259 227.023322,516.047054 C261.256923,508.019296 301.012095,487.440573 333.457447,462.957856 C353.061686,448.164828 369.848183,431.997921 380.613748,415.699264 C391.379313,399.400606 396.568625,381.673044 388.950491,366.241408 C382.788609,353.759624 369.4982,344.735696 350.335516,342.407529 C336.675745,340.747938 319.660933,342.170245 298.678396,347.11293 C300.235794,345.424763 301.352226,344.299509 303.025777,342.458674 C314.628953,329.695712 328.681375,313.444321 340.720131,295.81383 C352.758887,278.183339 362.925974,259.228871 366.190671,240.167349 C369.455368,221.105827 364.738871,201.2618 347.880524,186.873568 L347.675941,186.668985 L347.420213,186.464403 C339.690753,180.805008 330.559787,179.048232 321.438216,179.968903 L321.438216,179.968903 Z M328.445172,196.028642 C331.743617,196.369165 334.708592,197.573175 337.497954,199.557692 C349.928985,210.321555 352.600818,222.387381 350.028642,237.405483 C347.435925,252.543519 338.544714,270.019427 327.217676,286.60761 C315.890638,303.195794 302.279313,318.950311 290.904255,331.462357 C285.216727,337.71838 280.090311,343.157283 276.020867,347.573241 C271.951424,351.989198 269.161408,354.878445 267.070376,358.160393 L254.795417,377.442308 L276.532324,370.333061 C309.503764,359.557218 332.998445,356.750458 348.39198,358.620704 C363.785516,360.490949 370.645123,366.157971 374.271686,373.504092 C378.324795,381.714255 376.111457,392.839444 366.957856,406.697627 C357.804255,420.55581 342.171293,435.840671 323.586334,449.864566 C286.416432,477.91234 236.860458,500.814959 205.184124,503.158347 L175.212766,505.408756 L202.16653,518.655483 C215.515548,525.242095 221.812193,532.75653 224.159165,539.778642 C226.506137,546.800753 225.345614,554.2718 220.527823,562.333879 C210.98198,578.307872 186.469967,594.310524 157.00491,599.005319 C100.264255,595.572062 52.8253028,581.456399 30.9819967,563.049918 C20.0034206,553.798707 15.6089689,544.661686 16.8657938,534.203764 C18.1184124,523.780884 25.9709493,510.494141 44.2287234,495.486498 C44.2900982,495.436088 44.3205401,495.383552 44.3820786,495.333142 C128.91928,429.329984 175.447496,363.464026 230.347709,274.48617 C230.393535,274.411866 230.455237,274.355892 230.501064,274.281588 C245.058936,254.8909 266.365254,230.502062 287.221604,214.236579 C297.743273,206.030917 308.18766,199.998723 316.937234,197.460802 C321.312029,196.191849 325.047398,195.677954 328.445008,196.028723 L328.445172,196.028642 Z M328.445172,196.028642" id="Small Wing OL" fill="#404C53"></path>
        </g>
    </g>
</svg>

<?xml version="1.0" encoding="utf-8"?>
<!-- Generator: Adobe Illustrator 15.1.0, SVG Export Plug-In . SVG Version: 6.00 Build 0)  -->
<!DOCTYPE svg PUBLIC "-//W3C//DTD SVG 1.1//EN" "http://www.w3.org/Graphics/SVG/1.1/DTD/svg11.dtd">
<svg version="1.1" id="Layer_1" xmlns:sketch="http://www.bohemiancoding.com/sketch/ns"
	 xmlns="http://www.w3.org/2000/svg" xmlns:xlink="http://www.w3.org/1999/xlink" x="0px" y="0px" width="1020px" height="1020px"
	 viewBox="0 0 1020 1020" enable-background="new 0 0 1020 1020" xml:space="preserve">
<title>Cloudsdale Black 2</title>
<description>Created with Sketch (http://www.bohemiancoding.com/sketch)</description>
<g id="Page_1">
	<path id="Background" fill="#404B52" stroke="#404C53" stroke-width="10" d="M510,1010c276.143,0,500-223.857,500-500
		S786.143,10,510,10S10,233.857,10,510S233.857,1010,510,1010z"/>
	
		<g id="Rainbow" transform="translate(459.794955, 557.757412) rotate(-344.000000) translate(-459.794955, -557.757412) translate(-86.494047, 2.092176)">
		<g id="layer1" transform="translate(0.986972, 0.986972)">
			<path id="Shape" fill="#B390CC" stroke="#404C53" stroke-width="15" d="M143.196,261.483
				c88.145,11.047,159.176,53.24,215.925,118.783c111.377,130.216,181.846,306.519,283.644,466.439
				c50.851,73.07,133.33,80.321,171.543,81.04c-70.059,38.178-150.396,59.874-235.799,59.873
				c-6.001,0.001-11.977-0.107-17.927-0.319C443.56,846.814,399.314,643.381,298.339,481.666
				c-46.291-74.137-105.58-128.321-185.04-152.581C121.6,305.689,131.616,283.105,143.196,261.483z"/>
			<path id="path3849" fill="#6EA0D6" stroke="#404C53" stroke-width="15" d="M173.247,212.47
				c71.112,8.241,133.354,38.875,187.783,87.119c127.523,114.415,220.525,279.874,342.446,424.983
				c66.536,72.882,244.228,57.404,274.669,53.373l-3.309,10.268c-52.682,70.882-123.931,127.147-206.552,161.596
				c-46.278-14.856-88.34-40.046-126.551-73.915C506.411,752.111,435.79,555.53,314.057,408.057
				c-51.435-62.312-108.145-109.321-180.647-127.296C144.885,256.868,158.227,234.041,173.247,212.47z"/>
			<path id="path3851" fill="#7CDD8C" stroke="#404C53" stroke-width="15" d="M218.837,156.248
				c46.19,5.348,86.981,24.96,135.398,57.666c141.408,96.768,255.215,248.601,395.061,376.509
				c68.698,57.831,250.158,45.195,304.639,36.457c-18.344,65.836-49.996,126.127-91.874,177.788
				c-93.978,16.949-178.469-5.05-254.316-56.285c-150.364-105.034-246.02-290.615-385.988-420.89
				c-49.006-45.614-102.883-78.82-162.846-93.234C176.287,206.266,196.386,180.138,218.837,156.248z"/>
			<path id="path3853" fill="#E6FB69" stroke="#404C53" stroke-width="15" d="M265.854,112.309
				c26.62,6.585,52.789,16.439,78.492,29.26c152.881,77.415,285.646,213.079,441.076,321.588
				c75.004,47.901,234.192,14.831,285.569-0.779c0.667,10.499,1.005,21.087,1.005,31.754c0,50.717-7.651,99.647-21.861,145.698
				c-96.669,34.304-199.801,28.038-285.124-14.523c-162.845-84.44-282.059-255.964-437.918-366.805
				c-44.666-31.765-89.851-56.102-137.613-68.024C211.982,161.69,237.61,135.464,265.854,112.309z"/>
			<path id="path3855" fill="#F7BE6A" stroke="#404C53" stroke-width="15" d="M326.123,69.981
				c157.589,57.981,304.074,171.832,468.634,257.089c73.098,34.136,185.534-1.929,238.621-24.636
				c22.011,52.164,35.311,108.902,38.077,168.393c-91.335,48.469-183.899,51.203-275.648,19.653
				c-172.434-62.332-311.308-222.236-480.285-311.656c-28.198-14.922-56.434-26.709-84.853-34.742
				C259.257,115.674,291.304,90.744,326.123,69.981z"/>
			<path id="path3857" fill="#E46666" stroke="#404C53" stroke-width="15" d="M334.106,65.322
				c157.989,47.456,316.048,121.49,470.608,133.403c53.325,3.272,104.118-3.534,151.543-22.155
				c34.832,41.39,62.985,88.585,82.801,139.927c-73.107,39.149-150.949,47.178-231.43,30.83
				C628.48,308.007,468.872,173.37,289.629,106.766c-3.855-1.432-7.701-2.823-11.538-4.171
				C295.847,88.951,314.558,76.488,334.106,65.322z"/>
		</g>
	</g>
	
		<g id="Wing" transform="translate(509.500000, 449.500000) rotate(-11.000000) translate(-509.500000, -449.500000) translate(100.000000, 140.000000)">
		<path id="Large_Wing_FL" fill="#FFFFFF" d="M251.315,225.644C344.936,78.783,541.011-36.18,607.613,26.365
			c24.86,23.288-32.934,83.305-95.145,114.158c-43.437,21.542-80.682,43.278-86.057,68.797
			c135.645-33.527,334.425-111.258,381.108-33.903c24.168,66.193-95.542,72.036-341.361,180.033
			c139.589,28.434,180.539,68.623,184.142,105.321c-6.279,44.343-81.216,40.767-190.571,31.476
			c-44.481-3.779-87.885-2.387-128.01,6.995c39.202,24.857,130.177,140.782-226.795,103.147
			C2.503,581.04-15.408,531.929,38.873,490.475C141.38,410.095,187.764,324.4,251.315,225.644z"/>
		<path id="Small_Wing_FL" fill="#FFFFFF" d="M39.201,489.023c83.791-65.38,129.476-130.125,184.341-219.06
			c29.757-39.783,86.968-100.357,119.036-76.877c59.094,50.435-59.222,154.723-68.611,169.46
			c67.298-21.995,97.868-12.514,107.656,7.314c23.342,47.284-106.317,136.338-175.854,141.481
			c58.665,28.946,15.501,86.21-48.358,95.89C41.113,600.435-38.049,552.327,39.201,489.023L39.201,489.023z"/>
		<path id="Large_Wing_OL" fill="#404C53" d="M558.191,0.754c-7.207-0.084-14.678,0.514-22.351,1.637
			c-30.687,4.493-65.144,17.952-100.296,37.95c-70.294,39.99-143.448,106.068-191.132,180.851c-0.008,0.011,0.008,0.039,0,0.051
			c-63.71,99.008-109.341,183.381-210.515,262.735c-0.019,0.015-0.032,0.036-0.051,0.051
			c-14.331,10.955-24.453,22.706-29.562,35.342c-5.117,12.655-4.692,26.321,1.585,38.36c12.554,24.077,45.037,41.768,97.381,52.68
			l0.409,0.051l0.409,0.052c89.642,9.45,151.408,9.349,193.586,3.222c42.179-6.127,65.658-18.171,76.207-35.188
			c10.55-17.016,5.439-36.531-3.887-51.708c-5.381-8.758-12.181-16.369-19.077-22.759c34.209-5.939,70.611-6.87,108.122-3.682
			c54.746,4.651,100.993,7.971,135.485,4.347c17.246-1.812,31.702-5.28,42.963-12.019c11.259-6.738,19.029-17.451,20.918-30.789
			l0.153-0.972l-0.103-0.972c-2.068-21.06-15.236-42.753-44.752-61.835c-25.776-16.663-65.197-31.85-121.369-45.008
			c110.827-47.369,194.303-73.817,248.823-95.796c29.134-11.745,50.254-22.058,63.575-35.24
			c13.32-13.181,17.287-30.88,10.485-49.509l-0.256-0.716l-0.41-0.716c-13.311-22.057-37.541-32.728-66.284-35.955
			c-28.745-3.227-62.818,0.461-99.479,7.518c-67.285,12.953-142.763,37.152-206.832,53.958c4.36-5.441,10.372-11.033,18.054-16.673
			c14.673-10.774,34.535-21.473,56.107-32.171c32.094-15.917,62.698-38.994,82.754-61.835c10.027-11.42,17.519-22.724,20.97-33.909
			c3.45-11.186,2.051-23.608-6.598-31.71C598.957,6.997,579.815,1.007,558.191,0.754L558.191,0.754z M598.547,29.559
			c3.78,3.542,7.963,10.157,5.625,17.738c-2.339,7.581-8.556,17.574-17.646,27.926c-18.179,20.703-47.573,43.012-77.69,57.948
			c-21.866,10.845-42.358,21.794-58.51,33.654c-16.152,11.859-28.538,24.783-31.915,40.814l-2.71,12.735l12.684-3.12
			c68.348-16.893,151.856-44.615,223.506-58.409c35.826-6.896,68.673-10.272,94.568-7.365c25.532,2.866,43.487,11.351,53.601,27.516
			c4.9,13.932,2.959,21.744-6.853,31.455c-10.009,9.905-29.704,20.22-58.204,31.71c-57.001,22.979-148.839,51.647-272.146,105.821
			l-23.578,10.331l25.266,5.166c69.209,14.097,113.486,31.087,140.242,48.384c26.119,16.885,35.328,33.271,37.183,48.588
			c-1.385,8.314-5.237,13.598-12.94,18.208c-7.975,4.772-20.268,8.145-36.212,9.82c-31.885,3.351-77.807,0.24-132.416-4.399
			c-45.096-3.831-89.3-2.428-130.524,7.212l-19.026,4.399l16.469,10.484c8.58,5.44,21.141,16.881,28.744,29.255
			c7.603,12.374,10.315,24.156,3.887,34.523c-6.428,10.367-24.712,21.817-64.648,27.618c-39.895,5.795-100.597,6.012-189.29-3.324
			c-49.698-10.454-77.215-27.922-85.618-44.037c-4.218-8.089-4.511-15.822-0.921-24.703c3.591-8.88,11.567-18.781,24.345-28.539
			c103.888-81.435,150.987-168.411,214.352-266.878c45.99-72.115,117.666-136.916,185.454-175.481
			c33.894-19.282,66.834-31.997,94.568-36.058c6.933-1.015,13.473-1.485,19.64-1.432C576.335,17.28,587.838,19.504,598.547,29.559z"
			/>
		<path id="Small_Wing_OL" fill="#404C53" d="M321.439,179.969c-3.041,0.307-6.123,0.925-9.104,1.79
			c-11.926,3.459-23.679,10.613-35.188,19.589c-23.018,17.951-44.955,43.417-60.148,63.727l-0.204,0.256l-0.205,0.358
			c-54.73,88.718-99.574,152.202-182.437,216.858l-0.051,0.102L34,482.7C13.764,499.283,2.594,515.681,0.602,532.26
			c-1.993,16.58,6.152,31.782,19.845,43.321c27.385,23.077,77.345,36.385,136.508,39.842l0.818,0.052l0.869-0.153
			c34.024-5.158,62.656-22.435,75.901-44.6c6.623-11.081,9.23-24.001,5.165-36.16c-2.262-6.769-6.66-12.929-12.684-18.514
			c34.233-8.028,73.989-28.606,106.434-53.089c19.604-14.794,36.391-30.96,47.156-47.259c10.766-16.299,15.955-34.026,8.336-49.458
			c-6.161-12.482-19.452-21.506-38.615-23.834c-13.659-1.659-30.675-0.237-51.657,4.706c1.557-1.688,2.674-2.813,4.347-4.655
			c11.603-12.763,25.656-29.014,37.694-46.644c12.039-17.63,22.206-36.585,25.471-55.647c3.265-19.062-1.452-38.906-18.31-53.294
			l-0.204-0.205l-0.257-0.205C339.691,180.805,330.56,179.048,321.439,179.969L321.439,179.969z M328.445,196.029
			c3.298,0.34,6.263,1.544,9.053,3.529c12.431,10.764,15.103,22.83,12.531,37.848c-2.593,15.138-11.484,32.615-22.811,49.202
			c-11.327,16.588-24.938,32.343-36.314,44.855c-5.687,6.255-10.814,11.694-14.883,16.111c-4.07,4.416-6.86,7.305-8.951,10.587
			l-12.275,19.282l21.737-7.109c32.971-10.776,56.466-13.583,71.86-11.713c15.393,1.871,22.253,7.538,25.88,14.883
			c4.053,8.21,1.84,19.335-7.315,33.194c-9.153,13.859-24.786,29.143-43.371,43.167c-37.169,28.048-86.725,50.951-118.402,53.294
			l-29.971,2.25l26.954,13.247c13.349,6.586,19.645,14.1,21.993,21.123c2.347,7.022,1.186,14.494-3.631,22.555
			c-9.547,15.974-34.058,31.977-63.524,36.671c-56.741-3.433-104.179-17.548-126.023-35.955
			c-10.979-9.251-15.373-18.388-14.116-28.846c1.252-10.422,9.105-23.709,27.363-38.717c0.062-0.051,0.092-0.104,0.153-0.153
			c84.537-66.003,131.066-131.869,185.966-220.847c0.046-0.075,0.108-0.13,0.153-0.205c14.558-19.39,35.865-43.779,56.721-60.045
			c10.522-8.206,20.966-14.238,29.716-16.776C321.313,196.192,325.048,195.678,328.445,196.029L328.445,196.029z"/>
	</g>
</g>
</svg>
